X:77
T:Fox Hunt (Fone)
%%VWML:SBG-1-2-854-0
F:http://www.vwml.org/record/SBG/1/2/854
L:1/8
M:6/8
I:linebreak $
K:Ab
"^F. minor" CD=E | F F2 F2 GFG | =ECC ABc | BAG F2 C | FFG AGF |$ G=EC ABc | BAG F3 | F2 FF | 
AGA BAB | (c3 c) cB |$ AGF BAG | A2 G2 (3C=D=E65/64 | FFF GFG | G=EC ABc | BAG F2 z | 
T:Fox Hunt - Readie Mallet
F:http://www.vwml.org/record/SBG/1/2/854
L:1/8
M:6/8
I:linebreak $
K:F
C | F A F G B G | A c2- c2 A | B d c C E G | F3 z2 C | F A F G B- B |$ A/B/ c2- c2 A | 
B d c C D E | F3- F2 C | F A F G B- B | A/B/ c2- c2 A | B d c C D |$ (F3 !fermata!F2) | 
"^second verse" A/B/ | c A F C E G | F3- F2 F | F G A B G E | C3- C2 C | F A F G B G |$ 
A c2- c2 A | B d c C E G | F3- F2 C/C/ | F A F G B G | A c2- c2 A | B d c C E E | F3- F2 z | 

